src/assets/icons/filters/sort-by-desc.svg

<svg width="30" height="30" viewBox="0 0 30 30" fill="none" xmlns="http://www.w3.org/2000/svg">
<path d="M28.528 29.8359C28.3556 29.9438 28.1542 29.9962 27.951 29.9859H17.056C16.7908 29.9859 16.5364 29.8806 16.3489 29.693C16.1614 29.5055 16.056 29.2512 16.056 28.9859C16.056 28.7207 16.1614 28.4664 16.3489 28.2788C16.5364 28.0913 16.7908 27.9859 17.056 27.9859H25.646L3.46801 5.06395C3.29202 4.87186 3.19793 4.61866 3.20579 4.35825C3.21365 4.09784 3.32282 3.85078 3.51008 3.66964C3.69734 3.48851 3.94789 3.38761 4.20842 3.38841C4.46895 3.38922 4.71888 3.49166 4.90501 3.67395L27.002 26.5139V18.2259C27.002 17.9607 27.1074 17.7064 27.2949 17.5188C27.4824 17.3313 27.7368 17.2259 28.002 17.2259C28.2672 17.2259 28.5216 17.3313 28.7091 17.5188C28.8967 17.7064 29.002 17.9607 29.002 18.2259V28.9849C29.0039 29.1559 28.9611 29.3244 28.8778 29.4737C28.7945 29.623 28.6735 29.7479 28.527 29.8359H28.528ZM2.40101 1.99295C2.37573 2.12196 2.32526 2.24473 2.25248 2.35421C2.17971 2.4637 2.08606 2.55776 1.97689 2.63102C1.86772 2.70427 1.74518 2.75529 1.61628 2.78113C1.48738 2.80698 1.35465 2.80716 1.22568 2.78165C1.09671 2.75615 0.974032 2.70546 0.864671 2.6325C0.75531 2.55953 0.66141 2.46572 0.588344 2.35642C0.515278 2.24713 0.464479 2.1245 0.438856 1.99556C0.413232 1.86661 0.413286 1.73388 0.439014 1.60495L0.452013 1.54095C0.503598 1.28077 0.656425 1.05174 0.876874 0.904247C1.09732 0.756749 1.36734 0.702867 1.62751 0.754451C1.88769 0.806036 2.11672 0.958862 2.26422 1.17931C2.41172 1.39976 2.4656 1.66977 2.41401 1.92995L2.40101 1.99295Z" fill="black"/>
</svg>

<svg width="30" height="30" viewBox="0 0 30 30" fill="none" xmlns="http://www.w3.org/2000/svg"><path d="M28.528 29.836a.993.993 0 01-.577.15H17.056a1 1 0 110-2h8.59L3.468 5.064a1 1 0 011.437-1.39l22.097 22.84v-8.288a1 1 0 012 0v10.759a.98.98 0 01-.475.85h.001zM2.401 1.993a1 1 0 11-1.962-.388l.013-.064a1 1 0 111.962.389l-.013.063z" fill="#000"/></svg>
